icon_installer/data/icons/scalable/actions/show-stop-sign-symbolic.svg

<?xml version="1.0" encoding="UTF-8"?>
<svg height="16px" viewBox="0 0 16 16" width="16px" xmlns="http://www.w3.org/2000/svg">
    <g fill="#222222">
        <path d="m 5.679688 1.988281 l -0.289063 0.289063 l -3.390625 3.359375 v 4.644531 l 3.675781 3.707031 h 4.648438 l 3.675781 -3.707031 v -4.644531 l -3.679688 -3.648438 z m 0.828124 2 h 2.992188 l 2.5 2.480469 v 2.988281 l -2.507812 2.53125 h -2.980469 l -2.511719 -2.53125 v -2.988281 z m 0 0"/>
        <path d="m 6.855469 4.988281 l -1.855469 1.835938 v 2.289062 l 1.855469 1.875 h 2.289062 l 1.855469 -1.875 v -2.289062 l -1.855469 -1.835938 z m 0 0"/>
    </g>
</svg>

<svg xmlns="http://www.w3.org/2000/svg" width="16" height="16"><g fill="#222"><path d="m5.68 1.988-.29.29L2 5.636v4.644l3.676 3.707h4.648L14 10.281V5.637l-3.68-3.649zm.828 2H9.5l2.5 2.48v2.989l-2.508 2.531h-2.98L4 9.457V6.469zm0 0"/><path d="M6.855 4.988 5 6.824v2.29l1.855 1.874h2.29L11 9.113V6.824L9.145 4.988zm0 0"/></g></svg>
